X: 1
T: No_100_Song_on_the_Way_to_War.krn
N: Derived from No_100_Song_on_the_Way_to_War.krn
%%abc-version 2.0
%%abcx-abcm2ps-target-version 5.9.1 (29 Sep 2008)
%%abc-creator hum2abc beta
%%abcx-conversion-date 2019/03/15 08:36:13
%%humdrum-veritas 260835780
%%humdrum-veritas-data 1734098134
%%linebreak <none>
%%barnumbers 0
L: 1/8
M: 3/4
K: E clef=bass
[K:clef=bass][M:3/4]z4z G, | 
G,F, E, zG,2 ||  
[M:2/4]=C3A, | 
A, z=C2 | 
B,7/A,/ | 
A, z =CB, | 
A,3G, | 
G, z/ A,/ B,A, | 
G,4- | 
G, zF,2 ||  
[M:3/4]G,4F, z | 
A,2G,2F,G, ||  
[M:2/4]F,2z A, | 
A,7/G,/ | 
G, zF,2 | 
G,3A, | 
G, zF,2 | 
G,3A, ||  
[M:5/8]G,2z2A, ||  
[M:3/4]A,G, F, zG,2 ||  
[M:2/4]A,A, A,G, | 
A,2z2 | 
A,G, A,G, | 
F, zA,2 | 
=C4 | 
B, zA,2 | 
B,4 ||  
[M:3/4]B,2z2B,B, | 
=CB, A, zE,2 ||  
[M:2/4]B,4 | 
=C z B,3/A,/ | 
A,4 | 
z2A,B, | 
G,4- | 
G,2z2 |]  



